material/.icons/material/folder-pound-outline.svg

<?xml version="1.0" encoding="UTF-8"?><!DOCTYPE svg PUBLIC "-//W3C//DTD SVG 1.1//EN" "http://www.w3.org/Graphics/SVG/1.1/DTD/svg11.dtd"><svg xmlns="http://www.w3.org/2000/svg" xmlns:xlink="http://www.w3.org/1999/xlink" version="1.1" id="mdi-folder-pound-outline" width="24" height="24" viewBox="0 0 24 24"><path d="M20,18H4V8H20M20,6H12L10,4H4C2.89,4 2,4.89 2,6V18A2,2 0 0,0 4,20H20A2,2 0 0,0 22,18V8C22,6.89 21.1,6 20,6M19,12V11H17.5L18,9H17L16.5,11H14.5L15,9H14L13.5,11H12V12H13.25L12.75,14H11V15H12.5L12,17H13L13.5,15H15.5L15,17H16L16.5,15H18V14H16.75L17.25,12H19M15.75,14H13.75L14.25,12H16.25L15.75,14Z" /></svg>

<svg xmlns="http://www.w3.org/2000/svg" viewBox="0 0 24 24"><path d="M20 18H4V8h16m0-2h-8l-2-2H4c-1.11 0-2 .89-2 2v12a2 2 0 002 2h16a2 2 0 002-2V8a2 2 0 00-2-2m-1 6v-1h-1.5l.5-2h-1l-.5 2h-2l.5-2h-1l-.5 2H12v1h1.25l-.5 2H11v1h1.5l-.5 2h1l.5-2h2l-.5 2h1l.5-2H18v-1h-1.25l.5-2H19m-3.25 2h-2l.5-2h2l-.5 2z"/></svg>
